packages/core/src/svgs/networks/mono/neo-x.svg

<svg width="24" height="24" viewBox="0 0 24 24" fill="none" xmlns="http://www.w3.org/2000/svg">
<path fill-rule="evenodd" clip-rule="evenodd" d="M18.6095 18.2249C19.3092 19.0966 19.0307 20.3811 18.0308 20.8945L16.2677 21.7997C15.4843 22.2019 14.5206 21.9827 13.9952 21.2826L10.651 16.8274L8.19596 19.7144C7.46794 20.5704 6.10749 20.4873 5.49227 19.549L4.6421 18.2524C4.2605 17.6705 4.28574 16.916 4.70533 16.3599L7.53963 12.6048L4.33368 8.17123C3.97345 7.67316 3.89954 7.02698 4.13806 6.46218L4.9204 4.61057C5.34979 3.59424 6.73042 3.41071 7.41733 4.27863L10.7021 8.42868L15.2217 2.6852C15.8911 1.83441 17.1694 1.76503 17.9296 2.53811L19.4935 4.12875C20.1362 4.7824 20.1715 5.81029 19.575 6.50521L14.2151 12.7501L18.6094 18.2247L18.6095 18.2249ZM17.2045 3.23156C16.8719 2.89332 16.3128 2.92362 16.0198 3.29582L10.8812 9.82569C10.7916 9.9397 10.617 9.93985 10.527 9.82627L6.62104 4.89144C6.40968 4.62433 5.98489 4.68082 5.85279 4.9936L5.07045 6.8452C4.96611 7.09226 4.99847 7.37488 5.15595 7.59296L8.69407 12.4859C8.75062 12.5642 8.74958 12.6695 8.6914 12.7466L5.51543 16.9546C5.34756 17.1769 5.33747 17.4787 5.4902 17.7116L6.34022 19.0082C6.5863 19.3835 7.13043 19.4168 7.42163 19.0743L10.5172 15.4344C10.6105 15.3247 10.7831 15.3299 10.8697 15.4449L14.8068 20.69C15.0367 20.9962 15.4582 21.0922 15.801 20.9163L17.5642 20.0111C18.0016 19.7864 18.1234 19.2245 17.8174 18.8431L13.024 12.8713C12.9577 12.7886 12.9596 12.6714 13.0286 12.5909L18.804 5.86181C19.0649 5.55782 19.0494 5.10805 18.7683 4.82206L17.2044 3.23142L17.2045 3.23156Z" fill="white"/>
</svg>

<svg xmlns="http://www.w3.org/2000/svg" width="24" height="24" fill="none" viewBox="0 0 24 24">
    <path fill="#fff" fill-rule="evenodd" d="M18.61 18.225c.7.872.42 2.156-.58 2.67l-1.762.905a1.81 1.81 0 0 1-2.273-.517l-3.344-4.456-2.455 2.887a1.697 1.697 0 0 1-2.704-.165l-.85-1.297a1.64 1.64 0 0 1 .063-1.892l2.835-3.755L4.334 8.17a1.75 1.75 0 0 1-.196-1.709L4.92 4.61c.43-1.017 1.81-1.2 2.497-.332l3.285 4.15 4.52-5.744c.67-.85 1.947-.92 2.708-.147l1.564 1.59c.642.654.678 1.682.081 2.377l-5.36 6.245zM17.205 3.232a.793.793 0 0 0-1.185.064l-5.139 6.53a.226.226 0 0 1-.354 0L6.621 4.891a.452.452 0 0 0-.768.103L5.07 6.845a.77.77 0 0 0 .086.748l3.538 4.893a.22.22 0 0 1-.003.26l-3.176 4.209a.66.66 0 0 0-.025.757l.85 1.296a.68.68 0 0 0 1.082.066l3.095-3.64a.227.227 0 0 1 .353.01l3.937 5.246c.23.306.651.402.994.226l1.763-.905a.77.77 0 0 0 .253-1.168l-4.793-5.972a.22.22 0 0 1 .005-.28l5.775-6.73a.767.767 0 0 0-.036-1.039z" clip-rule="evenodd"/>
</svg>
